dist/assets/images/icons/icons8-маска-анонимуса.svg

<svg fill="#000000" xmlns="http://www.w3.org/2000/svg"  viewBox="0 0 16 16" width="30px" height="30px"><path d="M 7.5 1 C 4.8666667 1 2.3144531 2.0351563 2.3144531 2.0351562 A 0.50005 0.50005 0 0 0 2 2.5 L 2 7.5 C 2 9.7083333 3.3493439 11.556375 4.6464844 12.853516 C 5.9436248 14.150656 7.2421875 14.929686 7.2421875 14.929688 A 0.50005 0.50005 0 0 0 7.7578125 14.929688 C 7.7578125 14.929688 9.0563748 14.150656 10.353516 12.853516 C 11.650656 11.556375 13 9.7083333 13 7.5 L 13 2.5 A 0.50005 0.50005 0 0 0 12.685547 2.0351562 C 12.685547 2.0351562 10.133333 1 7.5 1 z M 7.5 2 C 9.6218368 2 11.570237 2.7048761 12 2.8652344 L 12 7.5 C 12 9.2916667 10.849344 10.943625 9.6464844 12.146484 C 8.9296161 12.863353 8.3973276 13.257439 8 13.527344 L 8 11 L 7 11 L 7 13.527344 C 6.6026724 13.257439 6.0703839 12.863353 5.3535156 12.146484 C 4.1506561 10.943625 3 9.2916667 3 7.5 L 3 2.8652344 C 3.4297634 2.7048761 5.3781632 2 7.5 2 z M 4.625 2.75 C 3.8666667 2.75 3.2773437 3.0527344 3.2773438 3.0527344 L 3.7226562 3.9472656 C 3.7226562 3.9472656 4.1333333 3.75 4.625 3.75 C 5.1166667 3.75 5.62727 3.8717275 6.0527344 4.7226562 L 6.9472656 4.2773438 C 6.37273 3.1282726 5.3833333 2.75 4.625 2.75 z M 10.375 2.75 C 9.6166667 2.75 8.62727 3.1282726 8.0527344 4.2773438 L 8.9472656 4.7226562 C 9.37273 3.8717274 9.8833333 3.75 10.375 3.75 C 10.866667 3.75 11.277344 3.9472656 11.277344 3.9472656 L 11.722656 3.0527344 C 11.722656 3.0527344 11.133333 2.75 10.375 2.75 z M 5 5 C 4.39 5 4 5.5 4 5.5 C 4 5.5 4.39 6 5 6 C 5.61 6 6 5.5 6 5.5 C 6 5.5 5.61 5 5 5 z M 10 5 C 9.39 5 9 5.5 9 5.5 C 9 5.5 9.39 6 10 6 C 10.61 6 11 5.5 11 5.5 C 11 5.5 10.61 5 10 5 z M 7.4921875 8 A 0.50005 0.50005 0 0 0 7.1464844 8.1464844 L 6.2929688 9 L 5.7070312 9 L 4.8535156 8.1464844 L 4.1464844 8.8535156 L 5.1464844 9.8535156 A 0.50005 0.50005 0 0 0 5.5 10 L 6.5 10 A 0.50005 0.50005 0 0 0 6.8535156 9.8535156 L 7.5 9.2070312 L 8.1464844 9.8535156 A 0.50005 0.50005 0 0 0 8.5 10 L 9.5 10 A 0.50005 0.50005 0 0 0 9.8535156 9.8535156 L 10.853516 8.8535156 L 10.146484 8.1464844 L 9.2929688 9 L 8.7070312 9 L 7.8535156 8.1464844 A 0.50005 0.50005 0 0 0 7.4921875 8 z"/></svg>

<svg xmlns="http://www.w3.org/2000/svg" viewBox="0 0 16 16" width="30" height="30"><path d="M7.5 1C4.867 1 2.314 2.035 2.314 2.035A.5.5 0 002 2.5v5c0 2.208 1.35 4.056 2.646 5.354a15.178 15.178 0 002.596 2.076.5.5 0 00.516 0s1.298-.78 2.596-2.076C11.65 11.556 13 9.708 13 7.5v-5a.5.5 0 00-.314-.465S10.133 1 7.5 1zm0 1c2.122 0 4.07.705 4.5.865V7.5c0 1.792-1.15 3.444-2.354 4.646A10.865 10.865 0 018 13.527V11H7v2.527c-.397-.27-.93-.664-1.646-1.38C4.15 10.943 3 9.291 3 7.5V2.865C3.43 2.705 5.378 2 7.5 2zm-2.875.75c-.758 0-1.348.303-1.348.303l.446.894s.41-.197.902-.197c.492 0 1.002.122 1.428.973l.894-.446C6.373 3.128 5.383 2.75 4.625 2.75zm5.75 0c-.758 0-1.748.378-2.322 1.527l.894.446c.426-.851.936-.973 1.428-.973.492 0 .902.197.902.197l.446-.894s-.59-.303-1.348-.303zM5 5c-.61 0-1 .5-1 .5s.39.5 1 .5 1-.5 1-.5S5.61 5 5 5zm5 0c-.61 0-1 .5-1 .5s.39.5 1 .5 1-.5 1-.5-.39-.5-1-.5zM7.492 8a.5.5 0 00-.346.146L6.293 9h-.586l-.853-.854-.708.708 1 1A.5.5 0 005.5 10h1a.5.5 0 00.354-.146l.646-.647.646.647A.5.5 0 008.5 10h1a.5.5 0 00.354-.146l1-1-.708-.708L9.293 9h-.586l-.853-.854A.5.5 0 007.492 8z"/></svg>
